public/img/box-icon.svg

<svg height="143" viewBox="0 0 184 143" width="184" xmlns="http://www.w3.org/2000/svg"><g fill="none" fill-rule="evenodd"><path d="m-491-280h1200v929h-1200z" fill="#f5f5f5"/><g fill="#4a4a4a" fill-rule="nonzero"><path d="m131.984139 120.081123c-.202899-2.715724-2.319859-4.873877-4.984139-5.081123-2.979772.231558-5.210887 2.881522-4.984139 5.918877.202899 2.715724 2.319859 4.873877 4.984139 5.081123 2.979772-.231159 5.210887-2.881522 4.984139-5.918877z"/><path d="m143.984139 117.081123c-.202899-2.715724-2.319859-4.873877-4.984139-5.081123-2.979772.231558-5.210887 2.881522-4.984139 5.918877.202899 2.715724 2.319859 4.873877 4.984139 5.081123 2.979772-.231159 5.210887-2.881522 4.984139-5.918877z"/><path d="m183.97486 30.4220442c-.069832-.4332686-.155228-.6041801-.255387-.7667057l-.574623-.6708675-.638469-.3833529-69.497357-28.36811144c-.767759-.31067555-1.6265-.31067555-2.394259 0l-69.1781229 27.88892034-.5746221.1916765-.6065456.6069753c-.2917006.4180942-.3770958.5890057-.4469284.7667057-.0335196.520721-.0335196.789068 0 1.0542204v25.5568572h-36.61620069c-1.7629727 0-3.19234531 1.4303853-3.19234531 3.1946071s1.42937261 3.1946072 3.19234531 3.1946072l36.23311929.4152989v11.9255564h-12.4182233c-1.7629727 0-3.1923453 1.4303854-3.1923453 3.1946072s1.4293726 3.1946071 3.1923453 3.1946071h12.4182233v11.9255565h-29.43342378c-1.76297269 0-3.19234531 1.4303853-3.19234531 3.1946071s1.42937262 3.1946071 3.19234531 3.1946071h29.43342378v11.3534583c.0063847 1.289822.7873122 2.449065 1.9792541 2.939038l69.2100463 28.751464c.34597.137369.713489.212841 1.085397.223623.371909-.010782.739427-.086254 1.085398-.223623l69.210046-28.751464c1.191942-.489973 1.97287-1.649216 1.979254-2.939038v-79.865179c.03352-.2651524.03352-.5334994 0-.7986518zm-71.726787-26.4220442 27.751927 11.1625-63.133945 26.8375-28.866055-12.0785714zm-1.248073 135-66-27.39839v-11.7900158h13.9460285c1.85583 0 3.3604888-1.4997101 3.3604888-3.3494364 0-1.8497262-1.5046588-3.3494364-3.3604888-3.3494364h-13.9460285v-11.4550724h31.9246436c1.8558299 0 3.3604888-1.4997102 3.3604888-3.3494364 0-1.8497263-1.5046589-3.3494364-3.3604888-3.3494364h-31.9246436v-11.4215781h6.7209776c1.8558299 0 3.3604888-1.4997102 3.3604888-3.3494364 0-1.8497263-1.5046589-3.3494364-3.3604888-3.3494364h-6.7209776v-21.8383253l25.6741344 10.584219 40.3258656 16.747182zm1.421405-82-26.421405-11.1804444 62.608696-26.8195556 27.391304 11.1466667-39.899666 16.8888889zm3.578595 81v-76.6192469l18.881098-7.8326359 46.951219-19.5481172.167683 76.619247z"/></g></g></svg>

<?xml version="1.0" encoding="UTF-8"?>
<svg width="184px" height="143px" viewBox="0 0 184 143" version="1.1" xmlns="http://www.w3.org/2000/svg" xmlns:xlink="http://www.w3.org/1999/xlink">
    <!-- Generator: Sketch 49.3 (51167) - http://www.bohemiancoding.com/sketch -->
    <title>box</title>
    <desc>Created with Sketch.</desc>
    <defs></defs>
    <g id="Page-1" stroke="none" stroke-width="1" fill="none" fill-rule="evenodd">
        <g id="Home" transform="translate(-491.000000, -1635.000000)">
            <rect id="Rectangle-7" fill="#F5F5F5" x="0" y="1355" width="1200" height="929"></rect>
            <g id="box" transform="translate(491.000000, 1635.000000)" fill="#4A4A4A" fill-rule="nonzero">
                <path d="M131.984139,120.081123 C131.78124,117.365399 129.66428,115.207246 127,115 C124.020228,115.231558 121.789113,117.881522 122.015861,120.918877 C122.21876,123.634601 124.33572,125.792754 127,126 C129.979772,125.768841 132.210887,123.118478 131.984139,120.081123 Z" id="Shape"></path>
                <path d="M143.984139,117.081123 C143.78124,114.365399 141.66428,112.207246 139,112 C136.020228,112.231558 133.789113,114.881522 134.015861,117.918877 C134.21876,120.634601 136.33572,122.792754 139,123 C141.979772,122.768841 144.210887,120.118478 143.984139,117.081123 Z" id="Shape"></path>
                <path d="M183.97486,30.4220442 C183.905028,29.9887756 183.819632,29.8178641 183.719473,29.6553385 L183.14485,28.984471 L182.506381,28.6011181 L113.009024,0.233006659 C112.241265,-0.0776688862 111.382524,-0.0776688862 110.614765,0.233006659 L41.4366421,28.121927 L40.86202,28.3136035 L40.2554744,28.9205788 C39.9637738,29.338673 39.8783786,29.5095845 39.808546,29.6872845 C39.7750264,30.2080055 39.7750264,30.4763525 39.808546,30.7415049 L39.808546,56.2983621 L3.19234531,56.2983621 C1.42937261,56.2983621 0,57.7287474 0,59.4929692 C0,61.257191 1.42937261,62.6875764 3.19234531,62.6875764 L39.4254646,63.1028753 L39.4254646,75.0284317 L27.0072413,75.0284317 C25.2442686,75.0284317 23.814896,76.4588171 23.814896,78.2230389 C23.814896,79.9872607 25.2442686,81.417646 27.0072413,81.417646 L39.4254646,81.417646 L39.4254646,93.3432025 L9.99204082,93.3432025 C8.22906813,93.3432025 6.79969551,94.7735878 6.79969551,96.5378096 C6.79969551,98.3020314 8.22906813,99.7324167 9.99204082,99.7324167 L39.4254646,99.7324167 L39.4254646,111.085875 C39.4318493,112.375697 40.2127768,113.53494 41.4047187,114.024913 L110.614765,142.776377 C110.960735,142.913746 111.328254,142.989218 111.700162,143 C112.072071,142.989218 112.439589,142.913746 112.78556,142.776377 L181.995606,114.024913 C183.187548,113.53494 183.968476,112.375697 183.97486,111.085875 L183.97486,31.220696 C184.00838,30.9555436 184.00838,30.6871966 183.97486,30.4220442 Z M112.248073,4 L140,15.1625 L76.866055,42 L48,29.9214286 L112.248073,4 Z M111,139 L45,111.60161 L45,99.8115942 L58.9460285,99.8115942 C60.8018585,99.8115942 62.3065173,98.3118841 62.3065173,96.4621578 C62.3065173,94.6124316 60.8018585,93.1127214 58.9460285,93.1127214 L45,93.1127214 L45,81.657649 L76.9246436,81.657649 C78.7804735,81.657649 80.2851324,80.1579388 80.2851324,78.3082126 C80.2851324,76.4584863 78.7804735,74.9587762 76.9246436,74.9587762 L45,74.9587762 L45,63.5371981 L51.7209776,63.5371981 C53.5768075,63.5371981 55.0814664,62.0374879 55.0814664,60.1877617 C55.0814664,58.3380354 53.5768075,56.8383253 51.7209776,56.8383253 L45,56.8383253 L45,35 L70.6741344,45.584219 L111,62.331401 L111,139 Z M112.421405,57 L86,45.8195556 L148.608696,19 L176,30.1466667 L136.100334,47.0355556 L112.421405,57 Z M116,138 L116,61.3807531 L134.881098,53.5481172 L181.832317,34 L182,110.619247 L116,138 Z" id="Shape"></path>
            </g>
        </g>
    </g>
</svg>
